X:92
T:An Phis Fhliuch
S: Taylor Stirm at Nine Irish Brothers session
R: slip jig
M: 9/8
L: 1/8
K: Dmix
FGA AFA c2A | BAG FAF GED | FGA AFA d2A | dfe dcA GED :|
|: d^cd e/f/ge =c2A | d^cd fdf g3 | agf ged c2A | BAG FAF GED :|
|: FGA Afd Afd | Afd Afd AFD | FGA AFA c2A | BAG FAF GED :|
|: ~D3 ~D3 c3 | c2B c2A GED | ~D3 ~D3 d2^c | dfe dcA GED :|
|: d^cd e/f/ge =c2A | d^cd fdf g3 | agf ged c2A | BAG FAF GED :|

